svgs/icons/sm/taxi.svg

<svg xmlns="http://www.w3.org/2000/svg" viewBox="0 0 16 16" enable-background="new 0 0 16 16"><path fill="#34363D" d="M2 13h3v1c0 .6-.4 1-1 1h-1c-.6 0-1-.4-1-1v-1zm9 1c0 .6.4 1 1 1h1c.6 0 1-.4 1-1v-1h-3v1zm4-5.4v3.4h-14v-3.4c0-.8.5-1.4 1.3-1.6l.7-2.5c.2-.9 1.1-1.5 2.2-1.5h.8v-2h4v2h.8c1.1 0 2 .6 2.3 1.5l.6 2.5c.8.2 1.3.8 1.3 1.6zm-11.7-1.6h9.4l-.6-2.3c-.1-.5-.7-.9-1.3-.9h-5.6c-.6 0-1.2.4-1.3.9l-.6 2.3zm1.7 2c0-.6-.4-1-1-1s-1 .4-1 1 .4 1 1 1 1-.4 1-1zm8 0c0-.6-.4-1-1-1s-1 .4-1 1 .4 1 1 1 1-.4 1-1z"/></svg>

<svg xmlns="http://www.w3.org/2000/svg" viewBox="0 0 16 16"><path fill="#34363D" d="M2 13h3v1c0 .6-.4 1-1 1H3c-.6 0-1-.4-1-1v-1zm9 1c0 .6.4 1 1 1h1c.6 0 1-.4 1-1v-1h-3v1zm4-5.4V12H1V8.6c0-.8.5-1.4 1.3-1.6L3 4.5C3.2 3.6 4.1 3 5.2 3H6V1h4v2h.8c1.1 0 2 .6 2.3 1.5l.6 2.5c.8.2 1.3.8 1.3 1.6zM3.3 7h9.4l-.6-2.3c-.1-.5-.7-.9-1.3-.9H5.2c-.6 0-1.2.4-1.3.9L3.3 7zM5 9c0-.6-.4-1-1-1s-1 .4-1 1 .4 1 1 1 1-.4 1-1zm8 0c0-.6-.4-1-1-1s-1 .4-1 1 .4 1 1 1 1-.4 1-1z"/></svg>
